!!!!SEGMENT: pl-kk--kk-i-14--005_anonim--tollite-portas-principes.krn
!!!cenid: 17xx:2193
!!!COM: Anonim
!!!COM-rismid: pe30004985
!!!CDT:
!!!CNT:
!!!OTL: Tollite portas principes
!!!PDT:
!!!AGN: Sacred
!!!SMS-siglum: PL-Kk
!!!SMS-shelfmark: Kk.I.14
!!!SMS-shelfwork: 005 W
!!!SMS-variant:
!!!SMS-altvar:
!!!NIFC-rismid: 1001154383
!!!URL-scan: http://repozytorium.nifc.pl/skany/pl-kk-nut--i-14
!!!ONB-nifc: UWAGA: T (skan 0004-0005), B (0017). Następny utwór: Alleluia Ave Maria
**kern	**text	**kern	**text
*part2	*part2	*part1	*part1
*staff2	*staff2	*staff1	*staff1
*Iempty	*	*Itenor	*
*I"Baſſo.	*	*I"2do Tenore	*
*I'B	*	*I'T 2	*
*clefF4	*	*clefC1	*
*k[b-]	*	*k[b-]	*
*F:	*	*F:	*
*M2/1	*	*M2/1	*
*met(C|)	*	*met(C)	*
=1-	=1-	=1-	=1-
*all\right	*	*all\right	*
00r	.	1f	Tol-
*	*	*2\right	*
.	.	2.cc\	-li-
.	.	4cc\	-te
=2-	=2-	=2-	=2-
.	.	2a\	.
.	.	2.dd\	Por-
.	.	4cc\	.
.	.	4b-\	.
.	.	4a\	.
=3-	=3-	=3-	=3-
!LO:TX:t=P:problem:kreska pseudotaktowa	!	!	!
0r	.	2g/	.
.	.	2.cc\	.
.	.	4b-\	.
.	.	2a\	.
=4-	=4-	=4-	=4-
(1C	Pol-	1g	.
1F)	.	2a\	-tas
.	.	2.a\	Prin-
=5-	=5-	=5-	=5-
1D	-li-	.	.
.	.	4a\	-ci-
!	!	!LO:TX:a:t=P:problem:oddech jako rozdzielacz słów:global	!
.	.	2a,<\	-pes
!LO:TX:t=P:problem:kreska pseudotaktowa	!	!	!
!LO:TX:a:t=P:problem:oddech jako rozdzielacz słów:global	!	!	!
1D,<	-te	4d/	ve-
.	.	4e/	.
.	.	4f/	.
.	.	4g/	.
=6-	=6-	=6-	=6-
*lig	*	*	*
1F	Por-	4a\	.
.	.	4b-\	.
.	.	4cc\	.
.	.	4a\	.
!	!	!LO:LB:g=original	!
1D	.	1dd	.
*Xlig	*	*	*
=7-	=7-	=7-	=7-
*lig	*	*	*
1E	.	2g/	.
.	.	1cc	.
1F	.	.	.
*Xlig	*	*	*
.	.	2a\	-ſtras
=8-	=8-	=8-	=8-
*lig	*	*	*
1D	.	2r	.
.	.	2f/	tol-
1C	.	2.cc\	-li-
*Xlig	*	*	*
.	.	4cc\	-te
=9-	=9-	=9-	=9-
*lig	*	*	*
1F	.	2a\	por-
.	.	4f\	.
.	.	4g\	.
1C	.	4a\	.
*Xlig	*	*	*
.	.	4b-\	.
.	.	2cc\	.
=10-	=10-	=10-	=10-
*lig	*	*	*
1D	.	2a\	-tas
.	.	2f/	Prin-
1F	.	2.cc\	.
*Xlig	*	*	*
.	.	8b-\L	.
.	.	8a\J	.
=11-	=11-	=11-	=11-
*lig	*	*	*
1G	.	4g\	.
.	.	4a\	.
.	.	4b-\	.
.	.	4cc\	.
1A	.	2.a\	.
*Xlig	*	*	*
.	.	4a\	-ci-
=12-	=12-	=12-	=12-
*lig	*	*	*
1F	.	2a\	-pes
.	.	1dd	ve-
1E	.	.	.
*Xlig	*	*	*
.	.	2cc\	.
!LO:LB:g=original	!	!LO:PB:g=original	!
=13-	=13-	=13-	=13-
1D	.	2dd\	.
.	.	2a\	-ſtras
*lig	*	*	*
1D	-tas	4d/	ve-
.	.	4e/	.
.	.	4f/	.
.	.	4g/	.
=14-	=14-	=14-	=14-
!LO:TX:t=P:problem:kreska pseudotaktowa	!	!	!
1C,<	.	4e/	.
*Xlig	*	*	*
.	.	4f/	.
.	.	4g/	.
.	.	4e/	.
*lig	*	*	*
1C	Prin-	2a\	.
.	.	2a\	-ſtras
=15-	=15-	=15-	=15-
1BB-	.	2r	.
*Xlig	*	*	*
.	.	2g/	tol-
*lig	*	*	*
1C	.	2.cc\	-li-
.	.	4cc\	-te
=16-	=16-	=16-	=16-
1D	.	2a\	por-
*Xlig	*	*	*
.	.	2dd\	.
*lig	*	*	*
1C	-ci-	2g/	.
.	.	2cc\	.
=17-	=17-	=17-	=17-
1D	.	2a\	-tas
*Xlig	*	*	*
.	.	2r	.
*lig	*	*	*
1D	-pes	2r	.
.	.	2f/	por-
=18-	=18-	=18-	=18-
1F,<	.	2a\	.
*Xlig	*	*	*
.	.	2f/	.
!	!	!LO:LB:g=original	!
*lig	*	*	*
1G	ve-	2b-\	.
.	.	2g/	.
=19-	=19-	=19-	=19-
1F	.	4cc\	.
*Xlig	*	*	*
.	.	4b-\	.
.	.	4a\	.
.	.	4g/	.
1D	.	2f,</	-tas
.	.	2f/	et
=20-	=20-	=20-	=20-
*lig	*	*	*
1F	-ſtras	2a\	e-
.	.	2cc\	-le-
1D	.	2ff\	-ua-
*Xlig	*	*	*
.	.	4ff\	-mi-
.	.	4ff\	-ni
=21-	=21-	=21-	=21-
!LO:TX:a:t=3	!	!	!
0r	.	4cc\	por-
.	.	4b-\	.
.	.	4a\	.
.	.	4g\	.
.	.	4f\	.
.	.	4g\	.
.	.	4a\	.
.	.	4b-\	.
=22-	=22-	=22-	=22-
!LO:TX:t=P:problem:kreska pseudotaktowa	!	!	!
1r	.	4cc\	.
.	.	4a\	.
.	.	2.dd\	.
2r	.	.	.
.	.	4b-\	.
2C/	et	1cc\	.
=23-	=23-	=23-	=23-
*2\right	*	*	*
2E\	e-	.	.
!	!	!LO:N:acc=#	!
2G\	-le-	2bn\	.
2c\	-va-	1cc	-tae
4c\	-mi-	.	.
4c\	-ni	.	.
!LO:LB:g=original	!	!LO:LB:g=original	!
=24-	=24-	=24-	=24-
2.F\	por-	0r	.
8E\L	.	.	.
!LO:TX:t=P:problem:kreska pseudotaktowa	!	!	!
8F\J	.	.	.
2G\	.	.	.
2GG/	.	.	.
=25-	=25-	=25-	=25-
2C/	-tae	2g/	ae-
!LO:TX:t=P:problem:kreska pseudotaktowa	!	!	!
2r	.	2g/	-ter-
1GG	ae-	1b-y	-na-
=26-	=26-	=26-	=26-
1BB-	-ter-	4f\	.
.	.	4g\	.
.	.	4a\	.
.	.	4b-\	.
2AA/	-na-	2cc\	.
1D	.	1a	.
=27-	=27-	=27-	=27-
.	.	.	.
4BB-/	.	[2b-\	.
!LO:TX:t=P:problem:kreska pseudotaktowa	!	!	!
4C/	.	.	.
4D\	.	2b-\]	.
4E-X\	.	.	.
2F\	.	2a\	.
=28-	=28-	=28-	=28-
2C/	.	2cc\	.
2G\	-les	1b-	.
!LO:TX:t=P:problem:kreska pseudotaktowa	!	!	!
1D	.	.	.
.	.	2a\	.
=29-	=29-	=29-	=29-
2GG/	ae-	1b-	-les
2C/	-ter-	.	.
!LO:LB:g=original	!	!	!
2.F\	-na-	1r	.
!LO:TX:t=P:problem:kreska pseudotaktowa	!	!	!
4Eny\	.	.	.
=30-	=30-	=30-	=30-
4D\	.	2r	.
4E\	.	.	.
4D\	.	2f/	et
4C\	.	.	.
4BB-/	.	2b-\	e-
4C/	.	.	.
4D\	.	1b-	-le-
!LO:TX:t=P:problem:kreska pseudotaktowa	!	!	!
4E\	.	.	.
=31-	=31-	=31-	=31-
2F\	.	.	.
!LO:TX:t=P:problem:kreska pseudotaktowa	!	!	!
2FF/	-les	2a\	-ua-
2r	.	2b-\	.
!LO:TX:t=P:problem:kreska pseudotaktowa	!	!	!
2BB-/	ae-	4f/	-mi-
.	.	4f/	-ni
=32-	=32-	=32-	=32-
2.AA/	-ter-	2.cc\	por-
4GG/	.	4b-\	.
!	!	!LO:LB:g=original	!
4FF/	-na-	4a\	.
4GG/	.	4b-\	.
4AA/	.	4a\	.
4BB-/	.	4g\	.
=33-	=33-	=33-	=33-
2C/	.	2f/	.
!LO:TX:t=P:problem:kreska pseudotaktowa	!	!	!
2C/	-les	2c/	-ta
2r	.	2c/	ae-
*	*ij	*	*
!LO:TX:t=P:problem:kreska pseudotaktowa	!	!	!
2GG/	ae-	2g/	-ter-
=34-	=34-	=34-	=34-
2C/	-ter-	1g	.
!LO:LB:g=original	!	!	!
1C	-na-	.	.
.	.	2a\	.
!LO:TX:t=P:problem:kreska pseudotaktowa	!	!	!
2BB-/	.	2b-\	.
=35-	=35-	=35-	=35-
2C/	-les	2g\	.
4FF/	ae-	2a\	-na-
!LO:TX:t=P:problem:kreska pseudotaktowa	!	!	!
4FF/	-ter-	.	.
2.BB-/	-na-	1f	-les
4AA/	.	.	.
=36-	=36-	=36-	=36-
4GG/	.	1r	.
4AA/	.	.	.
4BB-/	.	.	.
!LO:TX:t=P:problem:kreska pseudotaktowa	!	!	!
4C/	.	.	.
2D/	.	2r	.
2BB-/	.	2b-\	ae-
=37-	=37-	=37-	=37-
2E-X\	.	2g\	-ter-
!LO:TX:t=P:problem:kreska pseudotaktowa	!	!	!
2E-\	-les	2b-\	-na-
*	*Xij	*	*
2r	.	4f/	.
.	.	4g\	.
2F\	ae-	4a\	.
.	.	4f/	.
=38-	=38-	=38-	=38-
2D/	-ter-	2b-\	-les
*	*	*	*ij
!LO:TX:t=P:problem:kreska pseudotaktowa	!	!	!
2F\	-na-	2b-\	ae-
4BB-/	.	2b-\	-ter-
4C/	.	.	.
4D/	.	1b-	-na-
4Eny/	.	.	.
!LO:LB:g=original	!	!	!
=39-	=39-	=39-	=39-
1F	.	.	.
.	.	2a\	.
2BB-/	-les	1b-	-les
*	*	*	*Xij
!LO:TX:t=P:problem:kreska pseudotaktowa	!	!	!
2F\	et	.	.
!	!	!LO:LB:g=original	!
=40-	=40-	=40-	=40-
2A\	in-	2r	.
!LO:TX:t=P:problem:kreska pseudotaktowa	!	!	!
2F\	-tro-	2f/	et
4c\	-i-	2a\	in-
4d\	.	.	.
4c\	.	2f/	-tro-
!LO:TX:t=P:problem:kreska pseudotaktowa	!	!	!
4B-\	.	.	.
=41-	=41-	=41-	=41-
4A\	.	4cc\	-i-
4B-\	.	4dd\	.
4A\	.	4cc\	.
4G\	.	4b-\	.
2F\	.	4a\	.
.	.	4b-\	.
!LO:TX:t=P:problem:kreska pseudotaktowa	!	!	!
2F\	-bit	4a\	.
.	.	4g\	.
=42-	=42-	=42-	=42-
1r	.	2f/	.
.	.	2f/	-bit
2r	.	2r	.
2C/	et	2g/	et
=43-	=43-	=43-	=43-
2E\	in-	2g/	in-
!LO:TX:t=P:problem:kreska pseudotaktowa	!	!	!
2C/	-tro-	1cc	-tro-
4F\	-i-	.	.
4G\	.	.	.
4F\	.	1a	-i-
4E\	.	.	.
=44-	=44-	=44-	=44-
1D	.	.	.
.	.	2a\	-bit
1AA	.	2r	.
.	.	2a\	rex
!LO:LB:g=original	!	!	!
=45-	=45-	=45-	=45-
!LO:TX:t=P:problem:kreska pseudotaktowa	!	!	!
1D	-bit	4f/	glo-
.	.	4e/	.
.	.	4f/	.
.	.	4d/	.
00r	.	4a\	.
.	.	4g\	.
.	.	4a\	.
.	.	4b-\	.
!	!	!LO:LB:g=original	!
=46-	=46-	=46-	=46-
.	.	4cc\	.
.	.	4a\	.
.	.	1dd	.
.	.	2cc#X\	-ri-
=47-	=47-	=47-	=47-
.	.	2dd\	-ae
.	.	2a\	rex
2r	.	4f/	glo-
.	.	4e/	.
!LO:TX:t=P:problem:kreska pseudotaktowa	!	!	!
2D/	Rex	4f/	.
.	.	4d/	.
=48-	=48-	=48-	=48-
4C/	glo-	2.a\	.
4BB-/	.	.	.
4C/	.	.	.
4AA/	.	4g\	-ri-
2.BB-X/	.	1f	-ae
!LO:TX:t=P:problem:kreska pseudotaktowa	!	!	!
4AA/	-ri-	.	.
=49-	=49-	=49-	=49-
2BB-/	-ae	2r	.
2GG/	rex	2b-\	et
4C/	glo-	2a\	in-
4BB-/	.	.	.
4C/	.	2ccny\	-tro-
!LO:TX:t=P:problem:kreska pseudotaktowa	!	!	!
4AA/	.	.	.
=50-	=50-	=50-	=50-
2.D/	.	2.a\	-i-
4C/	-ri-	4a\	-bit
2D,</	-ae	2a\	rex
!LO:TX:t=P:problem:kreska pseudotaktowa	!	!	!
2AA/	rex	2cc,<\	.
=51-	=51-	=51-	=51-
2FF/	glo-	4a\	glo-
.	.	4g\	.
2AA/	.	4a\	.
.	.	4f\	.
2BB-/	.	2.b-\	.
2GG/	.	.	.
.	.	4g\	.
!LO:PB:g=original	!	!LO:LB:g=original	!
=52-	=52-	=52-	=52-
2.AA/	.	4cc\	.
.	.	4b-\	.
.	.	4cc\	.
4AA/	-ri-	4a\	.
2BB-,</	-ae	2.dd\	.
*	*ij	*	*
!LO:TX:t=P:problem:kreska pseudotaktowa	!	!	!
2D/	rex	.	.
.	.	4b-\	.
=53-	=53-	=53-	=53-
2AA/	glo-	2cc\	.
2.BB-/	.	2.dd\	.
4AA/	.	4cc\	.
!LO:TX:t=P:problem:kreska pseudotaktowa	!	!	!
2GG/	.	4b-\	.
.	.	4a\	.
=54-	=54-	=54-	=54-
2C/	.	2g\	.
2C/	-ri-	2g\	-ri-
2FF/	-ae	1a	-ae
2F\	rex	.	.
=55-	=55-	=55-	=55-
4E\	glo-	2r	.
4D\	.	.	.
4E\	.	2cc\	rex
!LO:TX:t=P:problem:kreska pseudotaktowa	!	!	!
4C\	.	.	.
4F\	.	4a\	glo-
4FF/	.	4g\	.
4AA/	.	4a\	.
4BB-/	.	4f\	.
=56-	=56-	=56-	=56-
2C/	.	2.cc\	.
2C/	-ri-	.	.
.	.	4cc\	-ri-
2FF/	-ae	2cc\	-ae
2AA/	rex	2a\	rex
=57-	=57-	=57-	=57-
1.BB-	glo-	1.dd	glo-
2BB-/	-ri-	2dd\	-ri-
=58-	=58-	=58-	=58-
!	!	!LO:TX:t=P:problem:kreska pseudotaktowa	!
0FFl	-ae	1cc;	-ae
*	*Xij	*	*
.	.	1ryy	.
!LO:LB:g=original	!	!LO:LB:g=original	!
=59-	=59-	=59-	=59-
1D	Quis	1r	.
2D\	a-	1a	Quis
1F	-ſcen-	.	.
=60-	=60-	=60-	=60-
.	.	2a\	a-
1E	.	1cc	-ſcen-
1F	.	1a	.
=61-	=61-	=61-	=61-
.	.	.	.
1G	.	2b-\	.
.	.	2cc#X\	.
1F	.	1dd	.
=62-	=62-	=62-	=62-
.	.	.	.
!LO:TX:t=P:problem:kreska pseudotaktowa	!	!	!
2E\	.	2cc#X\	.
1D	.	1dd	-det
=63-	=63-	=63-	=63-
1A	.	0r	.
!LO:TX:t=P:problem:kreska pseudotaktowa	!	!	!
1D	-det	.	.
=64-	=64-	=64-	=64-
0r	.	1a	quis
.	.	1a	a-
=65-	=65-	=65-	=65-
!LO:TX:t=P:problem:kreska pseudotaktowa	!	!	!
1r	.	2.cc\	-ſcen-
.	.	4b-\	.
2r	.	2a\	.
2D/	quis	2dd\	.
=66-	=66-	=66-	=66-
2G\	quis	2b-\	.
2E\	a-	1cc	.
1G	-ſcen-	.	.
.	.	2b-\	.
=67-	=67-	=67-	=67-
2C/	-det	2cc\	-det
!LO:TX:t=P:problem:kreska pseudotaktowa	!	!	!
2r	.	2cc\	in
!	!	!LO:LB:g=original	!
!LO:TX:t=P:problem:kreska pseudotaktowa	!	!LO:N:acc=#	!
0r	.	2bn\	mon-
.	.	2cc\	-tem
=68-	=68-	=68-	=68-
.	.	2b-y\	mon-
.	.	2cc\	-tem
2r	.	2a\	Do-
2C/	in	2cc\	-mi-
=69-	=69-	=69-	=69-
2F\	Mon-	2cc,<\	-ni
1F	.	2f/	in
.	.	2b-\	mon-
!LO:TX:t=P:problem:kreska pseudotaktowa	!	!	!
2E\	.	2cc\	.
=70-	=70-	=70-	=70-
2D/	.	2a\	.
2C/	.	1f	.
2BB-/	.	.	.
2GG,</	-tem	2b-\	-tem
=71-	=71-	=71-	=71-
2C/	Do-	2.cc\	Do-
!LO:TX:t=P:problem:kreska pseudotaktowa	!	!	!
2C/	-mi-	.	.
.	.	4cc\	-mi-
2FF/	-ni	1a	-ni
2D\	quis	.	.
=72-	=72-	=72-	=72-
2D\	a-	2r	.
1F	-ſcen-	2a\	quis
.	.	2g\	a-
!LO:TX:t=P:problem:kreska pseudotaktowa	!	!	!
2E\	.	1cc	-ſcen-
=73-	=73-	=73-	=73-
2.F\	.	.	.
.	.	2a\	.
4D\	.	.	.
!	!	!LO:SIC:v:t=custos c	!
1.G	.	1b-	.
!	!	!LO:PB:g=original	!
=74-	=74-	=74-	=74-
.	.	2cc\	.
!LO:TX:t=P:problem:kreska pseudotaktowa	!	!	!
2F\	.	1dd	.
2D\	.	.	.
2F\	.	2dd\	.
=75-	=75-	=75-	=75-
1G	.	2b-\	.
.	.	1dd	.
1A	.	.	.
.	.	2cc\	.
=76-	=76-	=76-	=76-
2D,</	-det	1dd	-det
!LO:LB:g=original	!	!	!
!LO:TX:t=P:problem:kreska pseudotaktowa	!	!	!
2D/	in	.	.
1F	Mon-	2r	.
.	.	2a\	in
=77-	=77-	=77-	=77-
2C/	.	2cc\	mon-
2G\	.	1b-	-tem
2B-\	.	.	.
!LO:TX:t=P:problem:kreska pseudotaktowa	!	!	!
2G\	-tem	1dd	Do-
=78-	=78-	=78-	=78-
2D/	Do-	.	.
2D/	-mi-	2dd\	-mi-
1GG	-ni	0dd	-ni
=79-	=79-	=79-	=79-
00r	.	.	.
.	.	00r	.
=80-	=80-	=80-	=80-
.	.	.	.
=81-	=81-	=81-	=81-
!LO:TX:t=P:problem:kreska pseudotaktowa	!	!	!
0r	.	.	.
.	.	1g	a-
=82-	=82-	=82-	=82-
1GG	a-	1b-	-ut
1BB-	-ut	1g	quis
=83-	=83-	=83-	=83-
2GG/	quis	2b-\	ſta-
1C	.	1cc	.
2GG/	ſta-	2b-\	.
=84-	=84-	=84-	=84-
!LO:TX:t=P:problem:kreska pseudotaktowa	!	!	!
1C	-bit	2cc\	-bit
.	.	2ee\	quis
1r	.	2dd\	ſta-
!	!	!LO:LB:g=original	!
.	.	2dd\	-bit
=85-	=85-	=85-	=85-
2r	.	2g/	in
2C/	in	2cc\	lo-
2F\	lo-	2a\	-co
!LO:TX:t=P:problem:kreska pseudotaktowa	!	!	!
2D/	-co	2dd\	San-
=86-	=86-	=86-	=86-
2.A\	ſan-	2.cc\	.
4G\	.	4b-\	.
2.F\	.	2a\	.
.	.	2.a\	.
4E\	.	.	.
!LO:LB:g=original	!	!	!
=87-	=87-	=87-	=87-
4D\	.	.	.
4E\	.	4g/	.
1F	.	2f/	.
.	.	2b-X\	.
!LO:TX:t=P:problem:kreska pseudotaktowa	!	!	!
2E\	.	2g\	.
=88-	=88-	=88-	=88-
2F,<\	-cto	2a\	.
2.D/	San-	2a\	-cto
.	.	2.dd\	San-
4C/	.	.	.
!LO:TX:t=P:problem:kreska pseudotaktowa	!	!	!
2BB-/	.	.	.
.	.	4cc\	.
=89-	=89-	=89-	=89-
2.BB-/	.	2b-\	.
.	.	2.b-\	.
4AA/	.	.	.
2GG/	.	.	.
.	.	4a\	.
!LO:TX:t=P:problem:kreska pseudotaktowa	!	!	!
2GG/	-cto	2g/	.
=90-	=90-	=90-	=90-
2r	.	2f/	.
2D/	in	2a\	.
!	!	!LO:LB:g=original	!
2G\	lo-	4g\	.
.	.	4a\	.
!LO:TX:t=P:problem:kreska pseudotaktowa	!	!	!
2G\	-co	4b-\	.
.	.	4cc\	.
=91-	=91-	=91-	=91-
2.D/	San-	4dd\	.
.	.	4a\	.
.	.	1dd	.
4C/	.	.	.
2BB-/	.	.	.
2C/	-cto	4cc\	.
.	.	4b-\	.
=92-	=92-	=92-	=92-
1D	e-	2a\	-cto
.	.	2a\	e-
!LO:TX:t=P:problem:kreska pseudotaktowa	!	!LO:N:acc=#	!
1GG	-ius	1bn	-ius
=93-	=93-	=93-	=93-
2r	.	1r	.
!LO:LB:g=original	!	!	!
2.D/	i-	.	.
.	.	2r	.
4D/	-no-	.	.
!LO:TX:t=P:problem:kreska pseudotaktowa	!	!	!
2D/	-cens	2.a\	in
=94-	=94-	=94-	=94-
2.F\	Ma-	.	.
.	.	4a\	no-
.	.	2a\	-cens
8E\L	.	.	.
!LO:TX:t=P:problem:kreska pseudotaktowa	!	!	!
8D\J	.	.	.
4C\	.	2.cc\	ma-
4D\	.	.	.
4E\	.	.	.
4F\	.	8b-y\L	.
.	.	8a\J	.
=95-	=95-	=95-	=95-
2.G\	.	4g\	.
.	.	4a\	.
.	.	4b-\	.
8F\L	.	4cc\	.
!LO:TX:t=P:problem:kreska pseudotaktowa	!	!	!
8E\J	.	.	.
4D\	.	2.dd\	.
4E\	.	.	.
4F\	.	.	.
4G\	.	8cc\L	.
.	.	8b-\J	.
!	!	!LO:LB:g=original	!
=96-	=96-	=96-	=96-
2.A\	.	4a\	.
.	.	4b-\	.
.	.	4cc\	.
4AA/	-ni-	4dd\	.
2AA,</	-bus	2.ee\	.
!LO:TX:t=P:problem:kreska pseudotaktowa	!	!	!
2AA/	et	.	.
.	.	4cc\	-ni-
=97-	=97-	=97-	=97-
2.D\	Mun-	2a\	-bus
.	.	2dd\	et
4E\	.	.	.
!LO:TX:t=P:problem:kreska pseudotaktowa	!	!	!
1F	.	2.a\	Mun-
.	.	4b-\	.
=98-	=98-	=98-	=98-
2C,<\	-do	1cc	.
2.E\	Cor-	.	.
.	.	2g\	.
4F\	.	.	.
2G\	.	2b-\	.
!LO:LB:g=original	!	!	!
=99-	=99-	=99-	=99-
2D,</	-de	2a\	.
1D	et	1a	-do
!LO:TX:t=P:problem:kreska pseudotaktowa	!	!	!
2BB-/	Mun-	1b-	Cor-
=100-	=100-	=100-	=100-
2GG/	-do	.	.
2AA/	cor-	2a\	.
!LO:TX:t=P:problem:kreska pseudotaktowa	!	!	!
1D	-de	0a	-de
=101-	=101-	=101-	=101-
1r	.	.	.
2r	.	0r	.
1D	quis	.	.
=102-	=102-	=102-	=102-
.	.	.	.
!LO:TX:t=P:problem:kreska pseudotaktowa	!	!	!
2F\	.	.	.
2D/	ſta-	2r	.
2D/	-bit	1a	quis
=103-	=103-	=103-	=103-
*	*ij	*	*
0F	quis	.	.
.	.	2cc\	ſta-
.	.	2a\	.
.	.	1dd	.
=104-	=104-	=104-	=104-
!LO:TX:t=P:problem:kreska pseudotaktowa	!	!	!
1E	ſta-	.	.
.	.	2cc\	.
2D/	-bit	1dd	-bit
2D/	quis	.	.
!	!	!LO:LB:g=original	!
=105-	=105-	=105-	=105-
1F	ſta-	2a\	in
.	.	1cc	lo-
2C/	-bit	.	.
*	*Xij	*	*
!LO:TX:t=P:problem:kreska pseudotaktowa	!	!	!
2C/	in	1g	-co
=106-	=106-	=106-	=106-
2.GG/	lo-	.	.
.	.	2b-X\	in
4AA/	-co	.	.
2BB-/	San-	1dd	lo-
2GG/	-cto	.	.
=107-	=107-	=107-	=107-
4AA/	e-	2a\	-co
4BB-/	.	.	.
4C/	.	2.a\	San-
4AA/	.	.	.
!LO:LB:g=original	!	!	!
2D/	.	.	.
.	.	4g/	.
!LO:TX:t=P:problem:kreska pseudotaktowa	!	!	!
2D/	-ius	4f/	.
.	.	4e/	.
=108-	=108-	=108-	=108-
0r	.	2f/	.
.	.	2.cc\	.
.	.	4b-\	.
.	.	4a\	.
.	.	4g/	.
=109-	=109-	=109-	=109-
1r	.	2f/	.
.	.	2d/	-cto
2r	.	2a\	e-
2.D/	in	2a\	-ius
=110-	=110-	=110-	=110-
.	.	2r	.
4D/	no-	.	.
!LO:TX:t=P:problem:kreska pseudotaktowa	!	!	!
2D/	-cens	2.a\	in-
2.F\	ma-	.	.
.	.	4a\	-no-
.	.	2a\	-cens
8E\L	.	.	.
8D\J	.	.	.
=111-	=111-	=111-	=111-
4C\	.	2.cc\	ma-
4D\	.	.	.
4E\	.	.	.
!LO:TX:t=P:problem:kreska pseudotaktowa	!	!	!
4F\	.	8b-\L	.
.	.	8a\J	.
!	!	!LO:LB:g=original	!
2.G\	.	4g\	.
.	.	4a\	.
.	.	4b-\	.
8F\L	.	4cc\	.
8E\J	.	.	.
=112-	=112-	=112-	=112-
2.D/	.	2.dd\	.
!LO:TX:t=P:problem:kreska pseudotaktowa	!	!	!
4D/	-ni-	8cc\L	.
.	.	8b-\J	.
2D/	-bus	2a\	.
2D/	ma-	1dd	.
=113-	=113-	=113-	=113-
2AA/	-ni-	.	.
2AA/	-bus	2cc#X\	-ni-
2D/	et	2dd\	-bus
!LO:TX:t=P:problem:kreska pseudotaktowa	!	!	!
2F\	Mun-	2r	.
!LO:LB:g=original	!	!	!
=114-	=114-	=114-	=114-
2F\	-do	2r	.
2E\	Cor-	2ccny\	et
4F\	.	2cc\	mun-
4G\	.	.	.
4F\	.	2a\	-do
!LO:TX:t=P:problem:kreska pseudotaktowa	!	!	!
4E\	.	.	.
=115-	=115-	=115-	=115-
2D/	.	4dd\	Cor-
.	.	4cc\	.
2D/	-de	4b-\	.
.	.	4a\	.
2D/	et	2g/	.
!LO:TX:t=P:problem:kreska pseudotaktowa	!	!	!
2C/	Mun-	2a\	-de
=116-	=116-	=116-	=116-
1D	.	2a\	et
.	.	2f/	mun-
2AA/	-do	1a	-do
2D/	Cor-	.	.
=117-	=117-	=117-	=117-
!LO:TX:t=P:problem:kreska pseudotaktowa	!	!	!
1D	.	2f/	et
.	.	2a\	mun-
1AA	-de	1a	-do
=118-	=118-	=118-	=118-
*	*ij	*	*
2D/	Cor-	2a\	Cor-
1GG	.	1b-	.
2D/	.	2a\	.
=119-	=119-	=119-	=119-
1GG	.	1b-	.
1Dl	-de	1al	-de
*	*Xij	*	*
==	==	==	==
*-	*-	*-	*-
!!!system-decoration: s1,s2
!!!RDF**kern: < = below
!!!RDF**kern: l = terminal long
!!!ENC: Marta Lawrence
!!!END: 2021-07-20
!!!ENC: Berenika Jozajtis
!!!END: 2021-07-01
